webapply/src/assets/images/logo-small.svg

<svg width="40px" height="44px" viewBox="0 0 40 44" version="1.1" xmlns="http://www.w3.org/2000/svg" xmlns:xlink="http://www.w3.org/1999/xlink">
    <g id="Desktop-responsiveness" stroke="none" stroke-width="1" fill="none" fill-rule="evenodd">
        <g id="1024-1279-Account-comparison-2" transform="translate(-42.000000, -34.000000)" fill="#FFFFFF">
            <g id="logo-white_expanded" transform="translate(42.000000, 34.000000)">
                <path d="M1.15900163,23.6824743 C2.28496277,25.4408765 5.51517913,28.8997118 7.43485057,30.4069137 C9.09610471,31.7208846 12.3263211,33.49861 14.172159,34.1362724 C16.5348315,34.9478426 18.3068359,35.2183661 21.0940512,35.199043 C23.7520578,35.1797199 25.3394784,34.9285195 27.462192,34.2328879 C28.6271004,33.8439138 30.3330238,32.1036753 32,29.7928255 C31.5232201,30.3966725 31.1961376,30.6206272 30.4893662,30.9479606 C26.1885639,32.8995938 20.0972987,33.3440252 15.3719536,32.0685072 C10.4804831,30.7354064 6.51193161,28.3200187 2.04500384,23.9336746 C0.987892457,22.8919662 0.400915997,22.4313034 0,22.4 C0.290165722,22.4687902 0.642536181,22.8772806 1.15900163,23.6824743" id="Mask"></path>
                <path d="M34.9579647,5.60656652 C34.0974365,2.62710237 31.5517072,0.96787982 26.7112361,0.254235713 C24.3627113,-0.0847452377 19.2174698,-0.0847452377 15.667791,0.254235713 C13.1695059,0.504421531 9.41805858,1.02869768 8.43257058,1.25052877 C8.3593493,1.26701071 8.22541442,1.30048213 8.16759593,1.31608112 C8.12905027,1.32648044 8.07318496,1.34348053 8,1.36708137 C8.19967892,1.41019278 8.37720495,1.44953012 8.53257809,1.48509339 C13.9646623,2.50221465 17.3171367,4.09007279 20.185564,6.94464922 C21.4584286,8.21136751 21.8707651,8.78228279 22.5699442,10.1738888 C23.8607365,12.7965309 24.1655069,14.1702958 24.1655069,17.4708998 C24.1655069,20.7001394 23.8428088,22.5556141 22.5878719,26.3914511 L21.7990544,28.8 L23.5380384,27.0158897 C24.488205,26.0346291 25.8865633,24.5001158 26.6395255,23.6260802 C33.1472699,15.9008828 36.1053356,9.51358959 34.9579647,5.60656652 Z" id="Mask"></path>
                <path d="M38.1926009,4.8 C37.1403659,4.8 36.6668601,5.39554128 36.0705936,7.41677231 C34.422092,13.1195313 31.8090415,18.3711226 28.6347991,22.3774912 C27.1090583,24.290442 24.1452628,27.1418215 22.5669102,28.2246238 C22.045648,28.5782973 21.4468828,28.9857926 20.7706145,29.4471098 C21.7712867,29.1901499 22.6681852,28.9450749 23.46131,28.7118849 C27.8456228,27.4125221 31.8616533,24.4348157 35.0358958,20.0855596 C35.754923,19.1110375 36.3336523,18.3891693 36.3336523,18.4974495 C36.3336523,18.6192648 36.1784477,19.1289038 35.9511649,19.7975342 C35.8848741,20.0023643 35.8131467,20.2207295 35.7373858,20.4464937 C35.432413,21.3336698 35.1127089,22.1746463 34.7730124,22.9834996 C34.6711209,23.2368754 34.5758937,23.4669709 34.492241,23.6588073 C34.2788126,24.1368646 34.0469702,24.6174483 33.8019748,25.0958665 C33.1215294,26.4497303 32.358659,27.7344753 31.4758338,29.0184984 C31.2539876,29.3326916 31.0740554,29.5788486 30.9118358,29.7806108 C29.3280466,31.9388163 27.7072539,33.5641026 26.600478,33.9273828 C24.5836941,34.5770642 23.0754905,34.8116714 20.5501263,34.8297181 C17.9020014,34.8477648 16.2184253,34.5951109 13.9736572,33.8371493 C12.2199321,33.241608 9.15091312,31.5813111 7.57256052,30.3541351 C5.74868641,28.9464921 2.67966747,25.7161318 1.60989515,24.0738816 C1.11920286,23.3218753 0.784416739,22.940368 0.508731152,22.8761217 C0.32423927,22.8618648 0.180609184,22.940368 0.0490798007,23.0993595 C-0.494574984,23.7670876 3.59160452,29.0547723 6.69569797,31.7255043 C10.2908344,34.8116714 13.9385827,36.6883483 18.428119,37.717191 L20.2519931,38.1320847 L18.6911777,38.5473394 C15.5520098,39.3594412 11.7464263,39.2331142 8.53710933,38.1864053 L6.95875674,37.6630509 L8.08114081,38.7637194 C10.1505364,40.7670842 13.0091084,42.3912877 15.5344725,42.986829 C17.1654369,43.3656294 20.8307224,43.2214362 22.3915377,42.6980817 C31.142626,39.8286555 37.7015579,29.0367256 39.5780438,14.4008474 C39.8937143,11.9284487 40.1041613,7.27239866 39.9463261,6.38811009 C39.7709535,5.4316347 39.0870008,4.8 38.1926009,4.8 Z" id="Mask"></path>
            </g>
        </g>
    </g>
</svg>

<?xml version="1.0" encoding="UTF-8"?>
<svg version="1.1" viewBox="0 0 40 44" xmlns="http://www.w3.org/2000/svg">
    <g fill="none" fill-rule="evenodd">
        <g transform="translate(-42 -34)" fill="#fff">
            <g transform="translate(42 34)">
                <path id="Mask" d="m1.159 23.682c1.126 1.7584 4.3562 5.2172 6.2758 6.7244 1.6613 1.314 4.8915 3.0917 6.7373 3.7294 2.3627 0.81157 4.1347 1.0821 6.9219 1.0628 2.658-0.019323 4.2454-0.27052 6.3681-0.96616 1.1649-0.38897 2.8708-2.1292 4.5378-4.4401-0.47678 0.60385-0.80386 0.8278-1.5106 1.1551-4.3008 1.9516-10.392 2.3961-15.117 1.1205-4.8915-1.3331-8.86-3.7485-13.327-8.1348-1.0571-1.0417-1.6441-1.5024-2.045-1.5337 0.29017 0.06879 0.64254 0.47728 1.159 1.2825"/>
                <path id="a" d="m34.958 5.6066c-0.86053-2.9795-3.4063-4.6387-8.2467-5.3523-2.3485-0.33898-7.4938-0.33898-11.043 0-2.4983 0.25019-6.2497 0.77446-7.2352 0.99629-0.073221 0.016482-0.20716 0.049953-0.26497 0.065552-0.038546 0.010399-0.094411 0.027399-0.1676 0.051 0.19968 0.043111 0.3772 0.082449 0.53258 0.11801 5.4321 1.0171 8.7846 2.605 11.653 5.4596 1.2729 1.2667 1.6852 1.8376 2.3844 3.2292 1.2908 2.6226 1.5956 3.9964 1.5956 7.297 0 3.2292-0.3227 5.0847-1.5776 8.9206l-0.78882 2.4085 1.739-1.7841c0.95017-0.98126 2.3485-2.5158 3.1015-3.3898 6.5077-7.7252 9.4658-14.112 8.3184-18.02z"/>
                <path d="m38.193 4.8c-1.0522 0-1.5257 0.59554-2.122 2.6168-1.6485 5.7028-4.2616 10.954-7.4358 14.961-1.5257 1.913-4.4895 4.7643-6.0679 5.8471-0.52126 0.35367-1.12 0.76117-1.7963 1.2225 1.0007-0.25696 1.8976-0.50203 2.6907-0.73522 4.3843-1.2994 8.4003-4.2771 11.575-8.6263 0.71903-0.97452 1.2978-1.6964 1.2978-1.5881 0 0.12182-0.1552 0.63145-0.38249 1.3001-0.066291 0.20483-0.13802 0.4232-0.21378 0.64896-0.30497 0.88718-0.62468 1.7282-0.96437 2.537-0.10189 0.25338-0.19712 0.48347-0.28077 0.67531-0.21343 0.47806-0.44527 0.95864-0.69027 1.4371-0.68045 1.3539-1.4433 2.6386-2.3261 3.9226-0.22185 0.31419-0.40178 0.56035-0.564 0.76211-1.5838 2.1582-3.2046 3.7835-4.3114 4.1468-2.0168 0.64968-3.525 0.88429-6.0504 0.90234-2.6481 0.018047-4.3317-0.23461-6.5765-0.99257-1.7537-0.59554-4.8227-2.2558-6.4011-3.483-1.8239-1.4076-4.8929-4.638-5.9627-6.2803-0.49069-0.75201-0.82548-1.1335-1.1012-1.1978-0.18449-0.014257-0.32812 0.064246-0.45965 0.22324-0.54365 0.66773 3.5425 5.9554 6.6466 8.6261 3.5951 3.0862 7.2429 4.9628 11.732 5.9917l1.8239 0.41489-1.5608 0.41525c-3.1392 0.8121-6.9448 0.68577-10.154-0.36093l-1.5784-0.52335 1.1224 1.1007c2.0694 2.0034 4.928 3.6276 7.4533 4.2231 1.631 0.3788 5.2962 0.23461 6.8571-0.28875 8.7511-2.8694 15.31-13.661 17.187-28.297 0.31567-2.4724 0.52612-7.1284 0.36828-8.0127-0.17537-0.95648-0.85933-1.5881-1.7537-1.5881z"/>
            </g>
        </g>
    </g>
</svg>
